X:638
T: "Bierlied"
N: Z1319
O: Europa, Mitteleuropa, Deutschland, Westfalen
R: Zech -, Schalks - Lied
M: 3/4
L: 1/8
K: Eb
B2BBeB | G2GGc2 |
A2AAAF | EDEFG2 |
E2EEE2 | G2BBB2 |
A2AAA2 | GFEFG2 |
E2EEE2 | G2BBB2 |
A2AGF2 | E4z2

@@@ Tune index: 10396
